X: 19790
T: Jer O'Connell's
R: polka
M: 2/4
K: Dmajor
B|:AD FG|AG AB|=c/B/A G>D|FG AF/G/|
AD FG|AG AB|=c/B/A GE|ED DA/B/:|
Ad de|fg/f/ ed|cA AB|cd ec|
Ad de|fg/f/ ed|cA GE|1 ED D2:|2 ED D||

